teeny/outline/linkedin.svg

<svg width="15" height="15" viewBox="0 0 15 15" fill="none" xmlns="http://www.w3.org/2000/svg">
<path d="M4.5 6V11M10.5 11V8.5C10.5 7.39543 9.60457 6.5 8.5 6.5C7.39543 6.5 6.5 7.39543 6.5 8.5V11V6M4 4.5H5M1.5 0.5H13.5C14.0523 0.5 14.5 0.947715 14.5 1.5V13.5C14.5 14.0523 14.0523 14.5 13.5 14.5H1.5C0.947716 14.5 0.5 14.0523 0.5 13.5V1.5C0.5 0.947716 0.947715 0.5 1.5 0.5Z" stroke="black"/>
</svg>

<svg viewBox="0 0 15 15" xmlns="http://www.w3.org/2000/svg"><path fill="none" stroke="#000" d="M4.5 6v5m6 0V8.5c0-1.11-.9-2-2-2 -1.11 0-2 .89-2 2V11 6M4 4.5h1M1.5.5h12c.55 0 1 .44 1 1v12c0 .55-.45 1-1 1h-12c-.56 0-1-.45-1-1v-12c0-.56.44-1 1-1Z"/></svg>
